src/lib/packages/icons/src/assets/filled/calendar-empty.svg

<svg width="24" height="24" viewBox="0 0 24 24" fill="none" xmlns="http://www.w3.org/2000/svg">
<path d="M21 7.5V18C21 20 20 21 18 21H6C4 21 3 20 3 18V7.5C3 5.5 4 4.5 6 4.5H7.25V3C7.25 2.586 7.586 2.25 8 2.25C8.414 2.25 8.75 2.586 8.75 3V4.5H15.25V3C15.25 2.586 15.586 2.25 16 2.25C16.414 2.25 16.75 2.586 16.75 3V4.5H18C20 4.5 21 5.5 21 7.5Z" fill="currentColor"/>
</svg>

<svg xmlns="http://www.w3.org/2000/svg" width="24" height="24" fill="none"><path fill="currentColor" d="M21 7.5V18c0 2-1 3-3 3H6c-2 0-3-1-3-3V7.5c0-2 1-3 3-3h1.25V3a.75.75 0 0 1 1.5 0v1.5h6.5V3a.75.75 0 0 1 1.5 0v1.5H18c2 0 3 1 3 3Z"/></svg>
